icons/mobile/24/svg/thumbs-up-fill-24.svg

<!-- This Source Code Form is subject to the terms of the Mozilla Public
   - License, v. 2.0. If a copy of the MPL was not distributed with this
   - file, You can obtain one at http://mozilla.org/MPL/2.0/. -->
<svg xmlns="http://www.w3.org/2000/svg" width="24" height="24" fill="none" viewBox="0 0 24 24">
    <path fill="#000" d="M21.308 11.291A2.5 2.5 0 0 0 18.936 8h-4.999V4.875A1.874 1.874 0 0 0 12.062 3h-.003a.86.86 0 0 0-.818.59l-.951 2.852q-.103.309-.281.58L8 10.086v9.164h8.853a2.5 2.5 0 0 0 2.372-1.709zM3.25 9h2a1 1 0 0 1 1 1v9a1 1 0 0 1-1 1h-2a1 1 0 0 1-1-1v-9a1 1 0 0 1 1-1" />
</svg>

<!-- This Source Code Form is subject to the terms of the Mozilla Public
   - License, v. 2.0. If a copy of the MPL was not distributed with this
   - file, You can obtain one at http://mozilla.org/MPL/2.0/. -->
<svg width="24" height="24" viewBox="0 0 24 24" fill="none" xmlns="http://www.w3.org/2000/svg">
    <path d="M21.308 11.291C21.847 9.672 20.642 8 18.936 8H13.937V4.875C13.937 3.839 13.098 3 12.062 3H12.059C11.688 3 11.358 3.238 11.241 3.59L10.29 6.442C10.222 6.647 10.127 6.842 10.009 7.022L8 10.086V19.25H16.853C17.929 19.25 18.885 18.562 19.225 17.541L21.308 11.291Z" fill="black" />
    <path d="M3.25 9H5.25C5.802 9 6.25 9.448 6.25 10V19C6.25 19.552 5.802 20 5.25 20H3.25C2.698 20 2.25 19.552 2.25 19V10C2.25 9.448 2.698 9 3.25 9Z" fill="black" />
</svg>
